X: 24902
T: Maher's
R: jig
M: 6/8
K: Gmajor
|:d|gdB BAB|GBd dBG|GBB FAA|GBd def|
gBB BAB|GBd dBG|GBB FAA|AGG G2:|
|:g|fed efg|afd cAG|fed efg|afd d2 g|
fed efg|afd CAF|GBB FAA|AGG G2:|

